public/logo.svg

<svg xmlns="http://www.w3.org/2000/svg" width="512" height="512" ><path d="M0 0h512v512H0z" fill="#000"/><path d="M79.593 233.399a23.95 23.95 0 1 1 0 48 23.95 23.95 0 1 1 0-48zm128.652-99.976a23.95 23.95 0 0 1 13.805 31.007l-61.639 160.576a23.95 23.95 0 0 1-44.812-17.202l61.639-160.576a23.95 23.95 0 0 1 31.007-13.805zm115.04-51.069a23.95 23.95 0 0 1 13.805 31.007l-116.111 302.48a23.95 23.95 0 1 1-44.812-17.202l116.111-302.48a23.95 23.95 0 0 1 31.007-13.805zm53.898 113.367a23.95 23.95 0 0 1 13.805 31.007l-50.172 130.701a23.95 23.95 0 0 1-44.812-17.202l50.172-130.701a23.95 23.95 0 0 1 31.007-13.805zm55.224 36.583a23.95 23.95 0 1 1 0 48 23.95 23.95 0 1 1 0-48z" fill="#fff"/></svg>

<svg xmlns="http://www.w3.org/2000/svg" viewBox="0 0 512 512">
  <path d="M 0 0 L 512 0 L 512 512 L 0 512 L 0 0 Z" fill="#000"></path>
  <path d="M 79.593 233.407 C 98.069 233.407 109.616 253.407 100.378 269.407 C 96.091 276.833 88.168 281.407 79.593 281.407 C 61.118 281.407 49.571 261.407 58.809 245.407 C 63.096 237.982 71.019 233.407 79.593 233.407 Z M 208.245 133.431 C 220.641 138.16 226.831 152.063 222.05 164.438 L 160.411 325.014 C 153.79 342.262 130.981 345.875 119.354 331.517 C 113.958 324.853 112.527 315.817 115.599 307.812 L 177.238 147.236 C 181.967 134.841 195.87 128.651 208.245 133.431 Z M 323.285 82.362 C 335.681 87.091 341.871 100.994 337.09 113.369 L 220.979 415.849 C 214.358 433.097 191.549 436.71 179.922 422.352 C 174.526 415.688 173.095 406.652 176.167 398.647 L 292.278 96.167 C 297.007 83.772 310.91 77.582 323.285 82.362 Z M 377.183 195.729 C 389.579 200.458 395.769 214.361 390.988 226.736 L 340.816 357.437 C 334.195 374.685 311.386 378.298 299.759 363.94 C 294.363 357.276 292.932 348.24 296.004 340.235 L 346.176 209.534 C 350.905 197.139 364.808 190.949 377.183 195.729 Z M 432.407 232.312 C 450.883 232.312 462.43 252.312 453.192 268.312 C 448.905 275.738 440.982 280.312 432.407 280.312 C 413.932 280.312 402.385 260.312 411.623 244.312 C 415.91 236.887 423.833 232.312 432.407 232.312 Z" fill="#fff"></path>
</svg>
